public/assets/images/hand-coin-line.svg

<svg xmlns="http://www.w3.org/2000/svg" viewBox="0 0 24 24" fill="rgba(0,0,0,0.7)"><path d="M5.00488 9.00281C5.55717 9.00281 6.00488 9.45052 6.00488 10.0028C7.63965 10.0028 9.14352 10.5632 10.3349 11.5023L12.5049 11.5028C13.8375 11.5028 15.0348 12.0821 15.8588 13.0025L19.0049 13.0028C20.9972 13.0028 22.7173 14.1681 23.521 15.8542C21.1562 18.9748 17.3268 21.0028 13.0049 21.0028C10.2142 21.0028 7.85466 20.3996 5.944 19.3449C5.80557 19.7284 5.43727 20.0028 5.00488 20.0028H2.00488C1.4526 20.0028 1.00488 19.5551 1.00488 19.0028V10.0028C1.00488 9.45052 1.4526 9.00281 2.00488 9.00281H5.00488ZM6.00589 12.0028L6.00488 17.0248L6.05024 17.0573C7.84406 18.3177 10.183 19.0028 13.0049 19.0028C16.0089 19.0028 18.8035 17.8472 20.84 15.8734L20.9729 15.7398L20.8537 15.6394C20.3897 15.2764 19.8205 15.0512 19.2099 15.0097L19.0049 15.0028L16.8934 15.0028C16.9664 15.3244 17.0049 15.6591 17.0049 16.0028V17.0028H8.00488V15.0028L14.7949 15.0018L14.7605 14.9233C14.38 14.1297 13.593 13.5681 12.6693 13.5081L12.5049 13.5028L9.57547 13.5027C8.66823 12.5773 7.40412 12.0031 6.00589 12.0028ZM4.00488 11.0028H3.00488V18.0028H4.00488V11.0028ZM18.0049 5.00281C19.6617 5.00281 21.0049 6.34595 21.0049 8.00281C21.0049 9.65966 19.6617 11.0028 18.0049 11.0028C16.348 11.0028 15.0049 9.65966 15.0049 8.00281C15.0049 6.34595 16.348 5.00281 18.0049 5.00281ZM18.0049 7.00281C17.4526 7.00281 17.0049 7.45052 17.0049 8.00281C17.0049 8.55509 17.4526 9.00281 18.0049 9.00281C18.5572 9.00281 19.0049 8.55509 19.0049 8.00281C19.0049 7.45052 18.5572 7.00281 18.0049 7.00281ZM11.0049 2.00281C12.6617 2.00281 14.0049 3.34595 14.0049 5.00281C14.0049 6.65966 12.6617 8.00281 11.0049 8.00281C9.34803 8.00281 8.00488 6.65966 8.00488 5.00281C8.00488 3.34595 9.34803 2.00281 11.0049 2.00281ZM11.0049 4.00281C10.4526 4.00281 10.0049 4.45052 10.0049 5.00281C10.0049 5.55509 10.4526 6.00281 11.0049 6.00281C11.5572 6.00281 12.0049 5.55509 12.0049 5.00281C12.0049 4.45052 11.5572 4.00281 11.0049 4.00281Z"></path></svg>

<svg fill="rgba(0,0,0,0.7)" viewBox="0 0 24 24"><path d="M5.005 9.003a1 1 0 0 1 1 1 6.97 6.97 0 0 1 4.33 1.5h2.17c1.332 0 2.53.58 3.354 1.5h3.146a5 5 0 0 1 4.516 2.851c-2.365 3.12-6.194 5.149-10.516 5.149-2.79 0-5.15-.603-7.061-1.658a1 1 0 0 1-.94.658h-3a1 1 0 0 1-1-1v-9a1 1 0 0 1 1-1zm1 3v5.022l.045.032c1.794 1.26 4.133 1.946 6.955 1.946 3.004 0 5.798-1.156 7.835-3.13l.133-.133-.12-.1a3 3 0 0 0-1.643-.63l-.205-.007h-2.112q.11.483.112 1v1h-9v-2l6.79-.001-.034-.079a2.5 2.5 0 0 0-2.092-1.415l-.164-.005h-2.93a4.99 4.99 0 0 0-3.57-1.5m-2-1h-1v7h1zm14-6a3 3 0 1 1 0 6 3 3 0 0 1 0-6m0 2a1 1 0 1 0 0 2 1 1 0 0 0 0-2m-7-5a3 3 0 1 1 0 6 3 3 0 0 1 0-6m0 2a1 1 0 1 0 0 2 1 1 0 0 0 0-2"/></svg>
